; generated by Slic3r 0.9.9-dev on 2013-04-08 at 22:43:58

; This Slic3r config is for the Rostock delta robot 3D printer prototype.

; layer_height = 0.2
; perimeters = 2
; top_solid_layers = 3
; bottom_solid_layers = 3
; fill_density = .1
; perimeter_speed = 28
; infill_speed = 28
; travel_speed = 150
; scale = 1
; nozzle_diameter = 0.35
; filament_diameter = 1.75
; extrusion_multiplier = 1.0
; perimeters extrusion width = 0.52mm
; infill extrusion width = 0.52mm
; first layer extrusion width = 0.20mm

M107
M190 S50 ; wait for bed temperature to be reached
M104 S185 ; set temperature
M109 S185 ; wait for temperature to be reached
G28 ; home all axes
G1 Z10 F24000 ; move to print surface
G90 ; use absolute coordinates
G21 ; set units to millimeters
G92 E0
M82 ; use absolute distances for extrusion
G1 F60000.000 E-5.00000
G1 Z0.500
G92 E0
G1 X-4.875 Y-42.461 F9000.000
G1 Z0.200
G1 F60000.000 E5.00000
G1 X57.845 Y-19.151 F720.000 E5.64592
G1 X58.345 Y-18.941 E5.65116
G1 X58.825 Y-18.691 E5.65638
G1 X59.505 Y-18.241 E5.66425
G1 X59.715 Y-18.071 E5.66686
G1 X60.305 Y-17.521 E5.67465
G1 X60.665 Y-17.111 E5.67991
G1 X60.825 Y-16.891 E5.68254
G1 X61.125 Y-16.441 E5.68776
G1 X61.385 Y-15.961 E5.69303
G1 X61.505 Y-15.721 E5.69562
G1 X61.695 Y-15.221 E5.70078
G1 X61.785 Y-14.961 E5.70344
G1 X61.915 Y-14.431 E5.70871
G1 X62.005 Y-13.901 E5.71390
G1 X62.055 Y-13.361 E5.71913
G1 X62.055 Y44.829 E6.28086
G1 X61.975 Y45.619 E6.28853
G1 X61.865 Y46.149 E6.29375
G1 X61.615 Y46.909 E6.30147
G1 X61.285 Y47.639 E6.30921
G1 X60.855 Y48.319 E6.31697
G1 X60.355 Y48.939 E6.32466
G1 X59.975 Y49.319 E6.32985
G1 X59.355 Y49.819 E6.33754
G1 X58.675 Y50.249 E6.34531
G1 X58.435 Y50.369 E6.34790
G1 X57.945 Y50.579 E6.35304
G1 X57.435 Y50.759 E6.35826
G1 X56.655 Y50.939 E6.36599
G1 X55.865 Y51.019 E6.37366
G1 X-17.045 Y51.019 E7.07748
G1 X-17.625 Y50.969 E7.08310
G1 X-18.485 Y50.789 E7.09158
G1 X-19.035 Y50.609 E7.09717
G1 X-19.575 Y50.379 E7.10284
G1 X-20.085 Y50.099 E7.10845
G1 X-27.715 Y45.039 E7.19683
G1 X-30.015 Y43.459 E7.22377
G1 X-30.515 Y43.079 E7.22983
G1 X-31.955 Y41.849 E7.24811
G1 X-33.605 Y40.269 E7.27017
G1 X-33.945 Y39.919 E7.27488
G1 X-35.465 Y38.229 E7.29682
G1 X-37.155 Y36.139 E7.32276
G1 X-38.745 Y33.909 E7.34920
G1 X-40.415 Y31.299 E7.37911
G1 X-41.625 Y29.119 E7.40318
G1 X-42.965 Y26.319 E7.43315
G1 X-44.035 Y23.769 E7.45984
G1 X-44.995 Y21.149 E7.48678
G1 X-45.775 Y18.719 E7.51142
G1 X-46.605 Y15.679 E7.54184
G1 X-47.175 Y13.139 E7.56697
G1 X-47.675 Y10.399 E7.59385
G1 X-48.095 Y7.499 E7.62214
G1 X-48.385 Y4.449 E7.65172
G1 X-48.525 Y1.669 E7.67859
G1 X-48.545 Y-1.451 E7.70870
G1 X-48.455 Y-4.321 E7.73642
G1 X-48.235 Y-7.161 E7.76392
G1 X-47.905 Y-9.931 E7.79085
G1 X-47.515 Y-12.421 E7.81518
G1 X-46.895 Y-15.441 E7.84494
G1 X-46.295 Y-17.811 E7.86854
G1 X-45.375 Y-20.771 E7.89846
G1 X-44.555 Y-22.971 E7.92113
G1 X-43.525 Y-25.381 E7.94643
G1 X-42.375 Y-27.721 E7.97160
G1 X-41.465 Y-29.341 E7.98953
G1 X-40.895 Y-30.301 E8.00031
G1 X-39.715 Y-32.091 E8.02101
G1 X-38.225 Y-34.091 E8.04508
G1 X-37.925 Y-34.461 E8.04968
G1 X-36.605 Y-35.971 E8.06904
G1 X-36.305 Y-36.291 E8.07328
G1 X-34.545 Y-38.031 E8.09717
G1 X-32.975 Y-39.351 E8.11697
G1 X-32.485 Y-39.721 E8.12290
G1 X-30.895 Y-40.801 E8.14145
G1 X-30.465 Y-41.071 E8.14635
G1 X-28.815 Y-42.011 E8.16468
G1 X-28.325 Y-42.261 E8.16999
G1 X-26.635 Y-43.041 E8.18796
G1 X-26.105 Y-43.261 E8.19350
G1 X-24.375 Y-43.881 E8.21124
G1 X-23.815 Y-44.051 E8.21689
G1 X-23.195 Y-44.211 E8.22307
G1 X-21.805 Y-44.531 E8.23684
G1 X-21.235 Y-44.631 E8.24243
G1 X-19.335 Y-44.891 E8.26094
G1 X-18.825 Y-44.941 E8.26589
G1 X-16.905 Y-45.051 E8.28445
G1 X-16.295 Y-45.061 E8.29034
G1 X-14.695 Y-45.001 E8.30580
G1 X-13.615 Y-44.881 E8.31629
G1 X-13.115 Y-44.791 E8.32119
G1 X-10.655 Y-44.251 E8.34550
G1 X-10.265 Y-44.161 E8.34937
G1 X-7.815 Y-43.461 E8.37397
G1 X-4.908 Y-42.472 E8.40361
G1 X-4.955 Y-42.241 F9000.000
G1 X58.005 Y-18.841 F720.000 E9.05200
G1 X58.715 Y-18.491 E9.05964
G1 X59.155 Y-18.211 E9.06468
G1 X59.565 Y-17.891 E9.06970
G1 X60.135 Y-17.361 E9.07721
G1 X60.475 Y-16.961 E9.08228
G1 X60.785 Y-16.541 E9.08732
G1 X61.175 Y-15.861 E9.09489
G1 X61.485 Y-15.141 E9.10245
G1 X61.695 Y-14.391 E9.10997
G1 X61.775 Y-13.871 E9.11505
G1 X61.825 Y-13.351 E9.12009
G1 X61.825 Y44.819 E9.68163
G1 X61.745 Y45.589 E9.68910
G1 X61.635 Y46.089 E9.69404
G1 X61.405 Y46.829 E9.70152
G1 X61.075 Y47.529 E9.70900
G1 X60.815 Y47.969 E9.71393
G1 X60.515 Y48.389 E9.71891
G1 X60.185 Y48.779 E9.72384
G1 X59.625 Y49.319 E9.73135
G1 X59.005 Y49.779 E9.73881
G1 X58.335 Y50.159 E9.74624
G1 X57.865 Y50.369 E9.75121
G1 X57.375 Y50.529 E9.75619
G1 X56.625 Y50.709 E9.76363
G1 X55.855 Y50.789 E9.77110
G1 X-17.035 Y50.789 E10.47474
G1 X-17.595 Y50.739 E10.48016
G1 X-18.425 Y50.569 E10.48834
G1 X-18.955 Y50.389 E10.49375
G1 X-19.475 Y50.169 E10.49920
G1 X-19.965 Y49.899 E10.50460
G1 X-27.585 Y44.849 E10.59284
G1 X-29.885 Y43.269 E10.61978
G1 X-30.365 Y42.899 E10.62563
G1 X-31.795 Y41.679 E10.64378
G1 X-33.445 Y40.099 E10.66583
G1 X-33.765 Y39.769 E10.67027
G1 X-35.285 Y38.079 E10.69221
G1 X-36.965 Y35.999 E10.71802
G1 X-38.555 Y33.779 E10.74438
G1 X-40.215 Y31.189 E10.77408
G1 X-40.725 Y30.279 E10.78415
G1 X-41.555 Y28.729 E10.80112
G1 X-42.755 Y26.229 E10.82789
G1 X-43.815 Y23.689 E10.85446
G1 X-44.685 Y21.329 E10.87874
G1 X-45.625 Y18.389 E10.90853
G1 X-46.305 Y15.909 E10.93336
G1 X-46.995 Y12.839 E10.96373
G1 X-47.445 Y10.359 E10.98806
G1 X-47.865 Y7.459 E11.01635
G1 X-48.155 Y4.429 E11.04573
G1 X-48.295 Y1.659 E11.07251
G1 X-48.315 Y-1.441 E11.10243
G1 X-48.225 Y-4.301 E11.13006
G1 X-48.005 Y-7.131 E11.15746
G1 X-47.675 Y-9.891 E11.18429
G1 X-47.285 Y-12.381 E11.20862
G1 X-46.665 Y-15.381 E11.23819
G1 X-45.975 Y-18.071 E11.26500
G1 X-45.155 Y-20.691 E11.29150
G1 X-44.225 Y-23.171 E11.31707
G1 X-43.315 Y-25.291 E11.33934
G1 X-42.165 Y-27.621 E11.36442
G1 X-41.265 Y-29.221 E11.38215
G1 X-40.895 Y-29.861 E11.38928
G1 X-39.515 Y-31.961 E11.41354
G1 X-39.305 Y-32.271 E11.41715
G1 X-38.045 Y-33.951 E11.43743
G1 X-36.145 Y-36.131 E11.46534
G1 X-34.745 Y-37.531 E11.48445
G1 X-34.395 Y-37.851 E11.48903
G1 X-33.555 Y-38.571 E11.49971
G1 X-32.355 Y-39.531 E11.51455
G1 X-30.765 Y-40.611 E11.53310
G1 X-30.345 Y-40.871 E11.53787
G1 X-28.695 Y-41.811 E11.55620
G1 X-28.225 Y-42.051 E11.56130
G1 X-26.535 Y-42.831 E11.57926
G1 X-26.025 Y-43.041 E11.58459
G1 X-24.295 Y-43.661 E11.60233
G1 X-23.135 Y-43.981 E11.61394
G1 X-21.745 Y-44.301 E11.62771
G1 X-21.195 Y-44.401 E11.63311
G1 X-18.815 Y-44.711 E11.65628
G1 X-16.895 Y-44.821 E11.67484
G1 X-16.305 Y-44.831 E11.68054
G1 X-14.705 Y-44.771 E11.69600
G1 X-13.645 Y-44.651 E11.70629
G1 X-13.165 Y-44.571 E11.71099
G1 X-10.705 Y-44.031 E11.73530
G1 X-7.585 Y-43.141 E11.76662
G1 X-4.988 Y-42.253 E11.79312
G1 F60000.000 E6.79312
G1 Z0.500
G92 E0
G1 X-28.256 Y35.815 F9000.000
G1 Z0.200
G1 F60000.000 E5.00000
G1 X-28.792 Y35.287 F720.000 E5.00726
G1 X-30.292 Y33.618 E5.02893
G1 X-31.726 Y31.825 E5.05109
G1 X-33.087 Y29.919 E5.07370
G1 X-34.371 Y27.905 E5.09676
G1 X-35.525 Y25.813 E5.11981
G1 X-36.572 Y23.630 E5.14319
G1 X-37.531 Y21.361 E5.16697
G1 X-38.395 Y19.019 E5.19107
G1 X-39.165 Y16.612 E5.21547
G1 X-39.836 Y14.147 E5.24012
G1 X-40.404 Y11.635 E5.26499
G1 X-40.867 Y9.091 E5.28995
G1 X-41.226 Y6.517 E5.31504
G1 X-41.473 Y3.935 E5.34008
G1 X-41.598 Y1.347 E5.36509
G1 X-41.618 Y-1.238 E5.39004
G1 X-41.533 Y-3.807 E5.41486
G1 X-41.345 Y-6.354 E5.43951
G1 X-41.052 Y-8.866 E5.46392
G1 X-40.660 Y-11.332 E5.48803
G1 X-40.165 Y-13.744 E5.51180
G1 X-39.572 Y-16.093 E5.53518
G1 X-38.867 Y-18.356 E5.55806
G1 X-38.059 Y-20.535 E5.58050
G1 X-37.159 Y-22.627 E5.60248
G1 X-36.167 Y-24.616 E5.62394
G1 X-35.090 Y-26.493 E5.64483
G1 X-33.930 Y-28.255 E5.66519
G1 X-32.696 Y-29.896 E5.68501
G1 X-31.389 Y-31.403 E5.70427
G1 X-30.017 Y-32.778 E5.72303
G1 X-29.198 Y-33.483 E5.73345
G1 X-28.568 Y-33.991 E5.74126
G1 X-27.011 Y-35.056 E5.75947
G1 X-25.401 Y-35.971 E5.77735
G1 X-23.745 Y-36.735 E5.79496
G1 X-22.050 Y-37.341 E5.81233
G1 X-20.269 Y-37.768 E5.83001
G1 X-18.406 Y-38.027 E5.84817
G1 X-16.522 Y-38.126 E5.86638
G1 X-14.971 Y-38.075 E5.88136
G1 X-14.586 Y-38.018 E5.88512
G1 X-12.156 Y-37.490 E5.90913
G1 X-9.735 Y-36.795 E5.93344
G1 X-7.277 Y-35.958 E5.95851
G1 X-4.834 Y-34.974 E5.98393
G1 X-3.947 Y-34.556 E5.99340
G1 X-2.293 Y-33.822 E6.01087
G1 X0.269 Y-32.519 E6.03861
G1 X0.876 Y-32.170 E6.04537
G1 X3.085 Y-31.006 E6.06948
G1 X5.507 Y-29.563 E6.09669
G1 X5.974 Y-29.322 E6.10176
G1 X7.803 Y-28.282 E6.12207
G1 X9.321 Y-27.393 E6.13906
G1 X10.201 Y-26.839 E6.14909
G1 X13.765 Y-25.051 E6.18759
G1 X15.801 Y-23.963 E6.20987
G1 X20.962 Y-21.939 E6.26339
G1 X23.679 Y-20.836 E6.29169
G1 X29.110 Y-19.208 E6.34643
G1 X35.964 Y-17.199 E6.41538
G1 X55.131 Y-12.714 E6.60539
G1 X55.131 Y44.096 E7.15380
G1 X-16.594 Y44.096 E7.84618
G1 X-17.687 Y43.267 E7.85942
G1 X-20.675 Y41.392 E7.89348
G1 X-22.608 Y40.079 E7.91604
G1 X-23.798 Y39.328 E7.92962
G1 X-26.069 Y37.767 E7.95622
G1 X-27.173 Y36.841 E7.97013
G1 X-28.231 Y35.839 E7.98420
G1 X-28.417 Y35.982 F9000.000
G1 X-28.960 Y35.448 F720.000 E7.99155
G1 X-30.469 Y33.768 E8.01334
G1 X-31.911 Y31.965 E8.03563
G1 X-33.280 Y30.049 E8.05837
G1 X-34.570 Y28.025 E8.08154
G1 X-35.732 Y25.919 E8.10475
G1 X-36.784 Y23.725 E8.12824
G1 X-37.747 Y21.447 E8.15212
G1 X-38.615 Y19.095 E8.17632
G1 X-39.388 Y16.678 E8.20082
G1 X-40.061 Y14.203 E8.22557
G1 X-40.631 Y11.681 E8.25053
G1 X-41.097 Y9.128 E8.27558
G1 X-41.457 Y6.545 E8.30076
G1 X-41.705 Y3.951 E8.32592
G1 X-41.830 Y1.354 E8.35102
G1 X-41.850 Y-1.241 E8.37606
G1 X-41.765 Y-3.819 E8.40097
G1 X-41.577 Y-6.376 E8.42571
G1 X-41.282 Y-8.898 E8.45022
G1 X-40.889 Y-11.374 E8.47443
G1 X-40.392 Y-13.796 E8.49830
G1 X-39.796 Y-16.155 E8.52178
G1 X-39.087 Y-18.430 E8.54479
G1 X-38.275 Y-20.622 E8.56735
G1 X-37.369 Y-22.724 E8.58945
G1 X-36.372 Y-24.725 E8.61103
G1 X-35.288 Y-26.615 E8.63206
G1 X-34.120 Y-28.389 E8.65256
G1 X-32.877 Y-30.041 E8.67253
G1 X-31.559 Y-31.561 E8.69194
G1 X-30.174 Y-32.949 E8.71087
G1 X-29.346 Y-33.661 E8.72141
G1 X-28.707 Y-34.177 E8.72934
G1 X-27.135 Y-35.253 E8.74773
G1 X-25.507 Y-36.178 E8.76580
G1 X-23.833 Y-36.951 E8.78361
G1 X-22.118 Y-37.564 E8.80118
G1 X-20.312 Y-37.997 E8.81912
G1 X-18.429 Y-38.259 E8.83747
G1 X-16.524 Y-38.358 E8.85588
G1 X-14.950 Y-38.307 E8.87108
G1 X-14.545 Y-38.247 E8.87504
G1 X-12.100 Y-37.715 E8.89920
G1 X-9.664 Y-37.016 E8.92365
G1 X-7.196 Y-36.176 E8.94882
G1 X-4.742 Y-35.187 E8.97437
G1 X-3.850 Y-34.767 E8.98388
G1 X-2.193 Y-34.032 E9.00138
G1 X0.379 Y-32.724 E9.02924
G1 X0.988 Y-32.373 E9.03602
G1 X3.198 Y-31.208 E9.06013
G1 X5.620 Y-29.766 E9.08735
G1 X6.085 Y-29.525 E9.09240
G1 X7.919 Y-28.484 E9.11276
G1 X9.441 Y-27.592 E9.12979
G1 X10.315 Y-27.041 E9.13976
G1 X13.872 Y-25.257 E9.17818
G1 X15.899 Y-24.174 E9.20036
G1 X21.049 Y-22.155 E9.25376
G1 X23.755 Y-21.055 E9.28196
G1 X29.176 Y-19.431 E9.33659
G1 X36.024 Y-17.424 E9.40547
G1 X55.363 Y-12.899 E9.59720
G1 X55.363 Y44.328 E10.14963
G1 X-16.670 Y44.328 E10.84499
G1 X-17.818 Y43.459 E10.85889
G1 X-20.802 Y41.587 E10.89290
G1 X-22.736 Y40.272 E10.91547
G1 X-23.926 Y39.521 E10.92906
G1 X-26.209 Y37.952 E10.95580
G1 X-27.327 Y37.014 E10.96989
G1 X-28.392 Y36.006 E10.98404
G1 X-28.579 Y36.149 F9000.000
G1 X-29.128 Y35.608 F720.000 E10.99148
G1 X-30.646 Y33.919 E11.01341
G1 X-32.097 Y32.105 E11.03583
G1 X-33.472 Y30.179 E11.05868
G1 X-34.769 Y28.145 E11.08196
G1 X-35.939 Y26.024 E11.10534
G1 X-36.996 Y23.821 E11.12893
G1 X-37.963 Y21.532 E11.15292
G1 X-38.834 Y19.170 E11.17722
G1 X-39.611 Y16.743 E11.20182
G1 X-40.287 Y14.260 E11.22667
G1 X-40.859 Y11.728 E11.25172
G1 X-41.326 Y9.165 E11.27687
G1 X-41.687 Y6.572 E11.30214
G1 X-41.936 Y3.966 E11.32741
G1 X-42.062 Y1.360 E11.35260
G1 X-42.082 Y-1.244 E11.37774
G1 X-41.997 Y-3.832 E11.40273
G1 X-41.808 Y-6.398 E11.42757
G1 X-41.512 Y-8.929 E11.45218
G1 X-41.117 Y-11.415 E11.47647
G1 X-40.618 Y-13.848 E11.50045
G1 X-40.020 Y-16.217 E11.52403
G1 X-39.307 Y-18.505 E11.54717
G1 X-38.490 Y-20.709 E11.56986
G1 X-37.580 Y-22.822 E11.59207
G1 X-36.577 Y-24.835 E11.61378
G1 X-35.486 Y-26.737 E11.63494
G1 X-34.310 Y-28.523 E11.65558
G1 X-33.058 Y-30.187 E11.67569
G1 X-31.729 Y-31.719 E11.69526
G1 X-30.333 Y-33.119 E11.71435
G1 X-29.495 Y-33.840 E11.72502
G1 X-28.847 Y-34.363 E11.73307
G1 X-27.258 Y-35.450 E11.75164
G1 X-25.614 Y-36.384 E11.76990
G1 X-23.921 Y-37.166 E11.78791
G1 X-22.187 Y-37.786 E11.80568
G1 X-20.354 Y-38.225 E11.82387
G1 X-18.451 Y-38.490 E11.84242
G1 X-16.527 Y-38.591 E11.86102
G1 X-14.929 Y-38.539 E11.87645
G1 X-14.504 Y-38.476 E11.88060
G1 X-12.043 Y-37.940 E11.90492
G1 X-9.594 Y-37.237 E11.92951
G1 X-7.116 Y-36.394 E11.95478
G1 X-4.649 Y-35.400 E11.98046
G1 X-3.753 Y-34.978 E11.99001
G1 X-2.094 Y-34.242 E12.00754
G1 X0.490 Y-32.928 E12.03552
G1 X1.100 Y-32.577 E12.04231
G1 X3.311 Y-31.411 E12.06645
G1 X5.733 Y-29.970 E12.09365
G1 X6.197 Y-29.729 E12.09869
G1 X8.035 Y-28.685 E12.11910
G1 X9.562 Y-27.791 E12.13618
G1 X10.429 Y-27.244 E12.14608
G1 X13.979 Y-25.463 E12.18442
G1 X15.996 Y-24.385 E12.20650
G1 X21.135 Y-22.371 E12.25978
G1 X23.832 Y-21.275 E12.28788
G1 X29.242 Y-19.653 E12.34240
G1 X36.083 Y-17.648 E12.41122
G1 X55.595 Y-13.083 E12.60466
G1 X55.595 Y44.561 E13.16111
G1 X-16.745 Y44.561 E13.85944
G1 X-17.949 Y43.651 E13.87401
G1 X-20.929 Y41.781 E13.90796
G1 X-22.864 Y40.466 E13.93055
G1 X-24.055 Y39.715 E13.94414
G1 X-26.349 Y38.138 E13.97102
G1 X-27.482 Y37.187 E13.98529
G1 X-28.553 Y36.173 E13.99953
G1 X-28.522 Y35.924 F9000.000
G1 X-28.547 Y35.204
G1 X-28.699 Y35.052 F720.000 E14.00162
G1 X-30.830 Y32.593 F9000.000
G1 X-25.574 Y37.848 F720.000 E14.07346
G1 X-24.523 Y38.571 F9000.000
G1 X-31.945 Y31.149 F720.000 E14.17491
G1 X-32.766 Y29.999 F9000.000
G1 X-23.491 Y39.274 F720.000 E14.30169
G1 X-22.599 Y39.837 E14.31188
G1 X-33.404 Y29.032 E14.45956
G1 X-33.982 Y28.125 E14.46995
G1 X-21.602 Y40.505 E14.63916
G1 X-20.576 Y41.203 F9000.000
G1 X-34.480 Y27.299 F720.000 E14.82921
G1 X-34.894 Y26.556 E14.83743
G1 X-19.679 Y41.770 E15.04539
G1 X-18.797 Y42.324 E15.05545
G1 X-35.280 Y25.841 E15.28075
G1 X-35.607 Y25.185 E15.28783
G1 X-17.915 Y42.877 E15.52966
G1 X-16.783 Y43.680 F9000.000
G1 X-35.910 Y24.553 F720.000 E15.79110
G1 X-36.213 Y23.922 E15.79787
G1 X-16.197 Y43.938 E16.07147
G1 X-15.868 Y43.938 E16.07464
G1 X-36.499 Y23.307 E16.35665
G1 X-36.740 Y22.737 E16.36262
G1 X-15.539 Y43.938 E16.65240
G1 X-15.210 Y43.938 E16.65558
G1 X-36.981 Y22.168 E16.95315
G1 X-37.221 Y21.598 E16.95912
G1 X-14.882 Y43.938 E17.26447
G1 X-14.553 Y43.938 E17.26765
G1 X-37.447 Y21.044 E17.58058
G1 X-37.639 Y20.523 E17.58595
G1 X-14.224 Y43.938 E17.90600
G1 X-13.895 Y43.938 E17.90918
G1 X-37.832 Y20.002 E18.23635
G1 X-38.024 Y19.481 E18.24172
G1 X-13.567 Y43.938 E18.57602
G1 X-13.238 Y43.938 E18.57920
G1 X-38.216 Y18.960 E18.92061
G1 X-38.377 Y18.470 E18.92560
G1 X-12.909 Y43.938 E19.27371
G1 X-12.580 Y43.938 E19.27689
G1 X-38.532 Y17.986 E19.63162
G1 X-38.687 Y17.503 E19.63652
G1 X-12.252 Y43.938 E19.99785
G1 X-11.923 Y43.938 E20.00103
G1 X-38.842 Y17.019 E20.36897
G1 X-38.996 Y16.536 E20.37388
G1 X-11.594 Y43.938 E20.74843
G1 X-11.265 Y43.938 E20.75161
G1 X-39.123 Y16.080 E21.13239
G1 X-39.246 Y15.628 E21.13691
G1 X-10.936 Y43.938 E21.52387
G1 X-10.608 Y43.938 E21.52705
G1 X-39.369 Y15.176 E21.92018
G1 X-39.492 Y14.725 E21.92470
G1 X-10.279 Y43.938 E22.32400
G1 X-9.950 Y43.938 E22.32718
G1 X-39.615 Y14.273 E22.73266
G1 X-39.726 Y13.833 E22.73704
G1 X-9.621 Y43.938 E23.14853
G1 X-9.293 Y43.938 E23.15171
G1 X-39.822 Y13.408 E23.56901
G1 X-39.918 Y12.984 E23.57322
G1 X-8.964 Y43.938 E23.99632
G1 X-8.635 Y43.938 E23.99949
G1 X-40.014 Y12.559 E24.42840
G1 X-40.110 Y12.134 E24.43261
G1 X-8.306 Y43.938 E24.86732
G1 X-7.978 Y43.938 E24.87050
G1 X-40.206 Y11.709 E25.31102
G1 X-40.290 Y11.297 E25.31509
G1 X-7.649 Y43.938 E25.76124
G1 X-7.320 Y43.938 E25.76442
G1 X-40.363 Y10.895 E26.21607
G1 X-40.436 Y10.493 E26.22003
G1 X-6.991 Y43.938 E26.67717
G1 X-6.663 Y43.938 E26.68035
G1 X-40.510 Y10.091 E27.14300
G1 X-40.583 Y9.689 E27.14695
G1 X-6.334 Y43.938 E27.61509
